X: 15872
T: Gradam, The
R: reel
M: 4/4
K: Gdorian
|:"Gm" GBAF DGGA|"Bb" B2 dc BGAF|"Dm" DA,DE FGAc|(3BAG AF DGGD|"Gm" GBAF DGGA|
"Bb" ~B2 GA Bcde|1 "F" f2 cf (3agf fe|"Dm" fdcA (3BAG AF:|2 "F" fa (3gfe fdcA|"Dm" fdcA "Gm" BGG2||
|:"F" F2 AG FEDA|"D7" dcAF "Gm" DGAc|"Bb" dgga "F" fd ~d2|"F" dcAF "Csus"~G2 DE|
"F" F2 AG FEDA|"Dm" dcAF "Gm" DGAc|"Bb" dbag "F" fdgf|1 "Dm" dcAF "Gm" G2 DE:|2 "Dm" dcAF DGGD||

